X:1
T:Voria per parte
T:Voria per parte
T:Giovanni Giacomo de Antiquis
T:Source : Secondo libro delle villanelle a 3 voci---Venetia---Figlio d'A.Gardano---1574. Editor : André Vierendeels (21/03/16).
T:Notes : Original clefs : C1, C2, C4 Editorial accidentals above the staff "Alla napolitana" Music by composers from Bari, collected by G.de Antiquis 
T:©
T:©
C:Giovanni Giacomo de Antiquis
Z:©
%%score [ 1 2 3 ]
L:1/8
Q:1/4=94
M:4/4
K:C
V:1 treble nm="Soprano" snm="S"
V:2 treble nm="Alto" snm="A"
V:3 treble-8 nm="Tenor" snm="T"
V:1
 G4 c2 B2 | A4 B2 G2 | G3 F E2 A2 | G4 F4 :: z2 G2 G2 G2 | A2 A2 B4 | G4 c2 B2 | A4 G4 | z4 z2 c2 | %9
w: 1)Vo- ria per|par- te o|per na- tu- r'ha-|ve- re,|1)u- na por-|tel- la so-|pra'il pet- to|fo- re,|1)ch'io|
w: 2)Che spes- so|poi te ve-|ne- ri' a ve-|de- re,|2)do- ve re-|stan- do mu-|to per ti-|mo- re,|2)io|
w: 3)Que- sto mo-|do'io ti fa-|rai _ a sa-|pe- re,|3)le pe- ne|che me dai|el gran do-|lo- re,|3)a|
w: 4)Al' hor vo-|ria ve- der|quel _ che fa-|ce- sti,|4)quan- do den-|tro sto co-|re ci ve-|de- sti,|4)quel-|
 G2 G2 _B4 | A4 z2 A2 | B4 c4 | A2 B2 c2 A2 | B2 c2 B4 | A2 A4 A2 | G2 F2 E4 |[M:2/4] D4 :| %17
w: ti mo- stras-|se, ch'io|ti mo-|1)stras- se quan- to|pa- te'il co-|re, quan- to|pa- te'il co-|re.|
w: ti mo- stras-|se, io|ti mo-|2)stras- se quan- to|pa- te'il co-|re, quan- to|pa- tr'il co-|re.|
w: pren- do- *|ti a|pren- do-|3)ti la por- ta|del mio co-|re, por- ta|del mio co-|re.|
w: lo che for-|si quel-|lo che|4)for- si mai ti|cre- de- re-|sti, mai ti|cre- de- re-|sti.|
V:2
 E4 E2 G2- | G2 ^F2 G2 D2 | E3 D C2 F2- | F2 E2 F4 :: z2 E2 E2 D2 | E2 F2 G4 | %6
w: 1)Vo- ria per|_ par- te o|per na- tu- r'ha-|* ve- re,|1)u- na por-|tel- la so-|
w: 2)Che spes- so|_ poi te ve-|ne- ri' a ve-|* de- re|2)do- ve re-|stan- do mu-|
"^-natural" E4 ^F2 G2- |"^#" G2 F2 G2 D2 | F2 F2 A4 | E4 z2 G2 | F3 G A4 | G4 z2 G2 | F2 D2 E2 F2 | %13
w: pra'il pet- to|_ fo- re,, ch'io|1)ti mo- stras-|se, io|ti mo- stras-|se, quan-|1)to pa- te'il co-|
w: to per ti-|* mo- re, io|2)ti mo- stras-|se, io|ti mo- stras-|se, quan-|2)to pa- te'il co-|
 G2 A4 ^G2 |"^-natural" A4 F3 F |"^#" D2 D4 C2 |[M:2/4] D4 :| %17
w: |re, quan- to|pa- te'il co-|re.|
w: |re, quan- to|pa- te'il co-|re/|
V:3
 c4 c2 e2 | d4 G2 G2 | c3 B A2 F2 | c4 F4 :: z2 c2 c2 B2 | c2 d2 G4 | c4 c2 e2 | d4 G4 | d4 A2 A2 | %9
w: 3)Que- sto mo-|do'io ti fa-|rai _ a sa-|pe- re,|3)le pe- ne|che me dai|el gran do-|lo- re,|3)a pren- do|
w: 4)Al' hor vo-|ria ve- der|quel _ che fa-|ce- sti,|4)quan- do den-|tro sto co-|re ci ve-|de- sti,|4)quel- lo che|
 c4 G4 | z2 d2 A2 A2 | e4 c4 | d4 A4 | e2 c2 d2 e2 | A2 F4 F2 | G2 D2 A4 |[M:2/4] D4 :| %17
w: _ ti,|a pren- do-|ti la|3)por- ta|del mio co- re,|la por- ta|del mio co-|re.|
w: for- si,|quel- lo che|for- si|4)mai ti|cre- de- re- sti,|mai ti cre-|de- re- *|sti.|

